symbols/web/6_ft_apart/materialsymbolsoutlined/6_ft_apart_wght100grad200_40px.svg

<svg xmlns="http://www.w3.org/2000/svg" height="40" width="40"><path d="M11 7.917q-1.042 0-1.729-.729-.688-.73-.688-1.73 0-1.041.688-1.75Q9.958 3 11 3t1.771.708q.729.709.729 1.75 0 1.042-.729 1.75-.729.709-1.771.709Zm-5.833 6.416v-.25q0-.75.416-1.312.417-.563 1.125-.896.959-.375 2.042-.646 1.083-.271 2.25-.271t2.25.271q1.083.271 2.083.646.667.333 1.105.896.437.562.437 1.312v.25ZM29 7.917q-1.042 0-1.729-.729-.688-.73-.688-1.73 0-1.041.688-1.75Q27.958 3 29 3t1.771.708q.729.709.729 1.75 0 1.042-.729 1.75-.729.709-1.771.709Zm-5.833 6.416v-.25q0-.75.416-1.312.417-.563 1.125-.896.959-.375 2.042-.646 1.083-.271 2.25-.271t2.25.271q1.083.271 2.083.646.667.333 1.105.896.437.562.437 1.312v.25ZM11.5 38.625q-.375 0-.583-.229-.209-.229-.209-.563v-5.791q0-.334.209-.542.208-.208.583-.208h4.875v1.791H12.5v1.25h3.083q.334 0 .563.209.229.208.229.583v2.708q0 .334-.229.563-.229.229-.563.229Zm1-1.625h2.083v-1.25H12.5Zm13.917 1.625v-5.542h-1.959v-1.791h5.709v1.791h-1.959v5.542Zm-7.834 0v-7.333h4.834v1.791h-3.042v1.25h1.667v1.792h-1.667v2.5Zm-9.166-11.25-4.542-4.542 4.542-4.541 1.208 1.166-2.5 2.5h23.792l-2.5-2.5 1.166-1.166 4.542 4.541-4.542 4.542-1.166-1.208 2.458-2.5H8.083l2.542 2.5Z"/></svg>

<svg xmlns="http://www.w3.org/2000/svg" height="40" width="40"><path d="M11 7.917Q9.958 7.917 9.271 7.188Q8.583 6.458 8.583 5.458Q8.583 4.417 9.271 3.708Q9.958 3 11 3Q12.042 3 12.771 3.708Q13.5 4.417 13.5 5.458Q13.5 6.5 12.771 7.208Q12.042 7.917 11 7.917ZM5.167 14.333V14.083Q5.167 13.333 5.583 12.771Q6 12.208 6.708 11.875Q7.667 11.5 8.75 11.229Q9.833 10.958 11 10.958Q12.167 10.958 13.25 11.229Q14.333 11.5 15.333 11.875Q16 12.208 16.438 12.771Q16.875 13.333 16.875 14.083V14.333ZM29 7.917Q27.958 7.917 27.271 7.188Q26.583 6.458 26.583 5.458Q26.583 4.417 27.271 3.708Q27.958 3 29 3Q30.042 3 30.771 3.708Q31.5 4.417 31.5 5.458Q31.5 6.5 30.771 7.208Q30.042 7.917 29 7.917ZM23.167 14.333V14.083Q23.167 13.333 23.583 12.771Q24 12.208 24.708 11.875Q25.667 11.5 26.75 11.229Q27.833 10.958 29 10.958Q30.167 10.958 31.25 11.229Q32.333 11.5 33.333 11.875Q34 12.208 34.438 12.771Q34.875 13.333 34.875 14.083V14.333ZM11.5 38.625Q11.125 38.625 10.917 38.396Q10.708 38.167 10.708 37.833V32.042Q10.708 31.708 10.917 31.5Q11.125 31.292 11.5 31.292H16.375V33.083H12.5V34.333H15.583Q15.917 34.333 16.146 34.542Q16.375 34.75 16.375 35.125V37.833Q16.375 38.167 16.146 38.396Q15.917 38.625 15.583 38.625ZM12.5 37H14.583V35.75H12.5ZM26.417 38.625V33.083H24.458V31.292H30.167V33.083H28.208V38.625ZM18.583 38.625V31.292H23.417V33.083H20.375V34.333H22.042V36.125H20.375V38.625ZM9.417 27.375 4.875 22.833 9.417 18.292 10.625 19.458 8.125 21.958H31.917L29.417 19.458L30.583 18.292L35.125 22.833L30.583 27.375L29.417 26.167L31.875 23.667H8.083L10.625 26.167Z"/></svg>
